loleaflet/images/lc_insertgraphicremote.svg

<svg viewBox="0 0 24 24" xmlns="http://www.w3.org/2000/svg"><path d="m3 3v18h9.046875a6.4745765 6.4745765 0 0 1 -1.046875-3.525391 6.4745765 6.4745765 0 0 1 6.474609-6.474609 6.4745765 6.4745765 0 0 1 3.525391 1.050781v-9.050781z" fill="#fafafa"/><path d="m2 2v20h10.845703a6.4745765 6.4745765 0 0 1 -.798828-1h-9.046875v-18h18v9.050781a6.4745765 6.4745765 0 0 1 1 .800781v-10.851562z" fill="#3a3a38"/><circle cx="7.5" cy="7.5" fill="#fb983b" r="2.5"/><path d="m9 16s-3.0301089 3.29623-4.7949219 5h7.8417969a6.4745765 6.4745765 0 0 1 -1.042969-3.410156l-.003906.003906z" fill="#83beec"/><path d="m9 15s-5.5124055 6-6 6h1.2050781c1.764813-1.70377 4.7949219-5 4.7949219-5l2 1.59375.003906-.003906a6.4745765 6.4745765 0 0 1 -.003906-.115235 6.4745765 6.4745765 0 0 1 .078125-.953125l-.078125.072266z" fill="#0063b1"/><circle cx="17.5" cy="17.5" fill="#fafafa" r="4.5"/><path d="m17.5 12a5.5 5.5 0 0 0 -5.5 5.5 5.5 5.5 0 0 0 5.5 5.5 5.5 5.5 0 0 0 5.5-5.5 5.5 5.5 0 0 0 -5.5-5.5zm.002 1.152344.08984.130859c.395593.573138.685701 1.110167.904297 1.625-.66098.08701-1.337963.09546-1.998047.02149.219378-.521298.512948-1.065347.914062-1.646485zm-1.197265.0098c-.33902.54301-.609898 1.073508-.808641 1.587856-.410909-.103775-.799382-.255576-1.173828-.431641a4.5 4.5 0 0 1 1.982422-1.15625zm2.398437.0059a4.5 4.5 0 0 1 1.949219 1.126953c-.371117.166399-.754758.312263-1.160156.417969-.196337-.500938-.459886-1.016828-.789063-1.544922zm2.597656 1.923828a4.5 4.5 0 0 1 .665969 1.908128h-1.978516c-.01879-.430546-.08006-.872911-.191406-1.326172.525818-.144098 1.025061-.345735 1.503906-.582031zm-7.613281.02539c.481599.248881.983626.457377 1.509766.597656-.105107.438776-.163463.867582-.181688 1.285082h-1.984375a4.5 4.5 0 0 1 .65625-1.882812zm5.138672.761718c.09688.386241.141368.75759.158156 1.12102h-2.964844c.01639-.354839.05975-.717178.152344-1.09375.878831.124104 1.778028.11178 2.654297-.02734zm-5.793016 2.12102h2.011719c.04698.437909.138331.859149.253906 1.271484-.560836.141718-1.093792.361014-1.605469.625a4.5 4.5 0 0 1 -.660156-1.896484zm3.023438 0h2.890625c-.04721.37642-.130834.747696-.240235 1.115234-.405333-.05899-.81405-.09778-1.224609-.101562-.400382-.0037-.799302.02372-1.195313.07422-.105532-.35842-.184413-.720978-.230468-1.087892zm3.902343 0h2.009766a4.5 4.5 0 0 1 -.677734 1.917969c-.507501-.24957-1.03832-.463219-1.597657-.609375.1209-.424158.217214-.857368.265625-1.308594zm-2.478515 2.033203c.293733.0028.587627.029.878906.0625-.231663.557096-.501851 1.111673-.796875 1.671875l-.06055.113281-.05859-.113281c-.298139-.566116-.571154-1.126417-.804687-1.689453.279218-.02629.559921-.04758.841797-.04492zm-1.861328.207031c.216609.552107.473731 1.084982.742187 1.607422a4.5 4.5 0 0 1 -2.027344-1.15625c.407889-.190697.835239-.345886 1.285157-.451172zm3.751953.0332c.44544.108726.867828.262113 1.273437.443359a4.5 4.5 0 0 1 -2.003906 1.132812c.263467-.512631.51633-1.035121.730469-1.576171z" fill="#1e8bcd"/></svg>

<?xml version="1.0" encoding="UTF-8" standalone="no"?>
<svg
   xmlns:dc="http://purl.org/dc/elements/1.1/"
   xmlns:cc="http://creativecommons.org/ns#"
   xmlns:rdf="http://www.w3.org/1999/02/22-rdf-syntax-ns#"
   xmlns:svg="http://www.w3.org/2000/svg"
   xmlns="http://www.w3.org/2000/svg"
   xmlns:sodipodi="http://sodipodi.sourceforge.net/DTD/sodipodi-0.dtd"
   xmlns:inkscape="http://www.inkscape.org/namespaces/inkscape"
   viewBox="0 0 24 24"
   version="1.1"
   id="svg12"
   sodipodi:docname="lc_insertgraphicremote.svg"
   inkscape:version="0.92.5 (2060ec1f9f, 2020-04-08)">
  <metadata
     id="metadata18">
    <rdf:RDF>
      <cc:Work
         rdf:about="">
        <dc:format>image/svg+xml</dc:format>
        <dc:type
           rdf:resource="http://purl.org/dc/dcmitype/StillImage" />
        <dc:title></dc:title>
      </cc:Work>
    </rdf:RDF>
  </metadata>
  <defs
     id="defs16" />
  <sodipodi:namedview
     pagecolor="#ffffff"
     bordercolor="#666666"
     borderopacity="1"
     objecttolerance="10"
     gridtolerance="10"
     guidetolerance="10"
     inkscape:pageopacity="0"
     inkscape:pageshadow="2"
     inkscape:window-width="1366"
     inkscape:window-height="700"
     id="namedview14"
     showgrid="true"
     inkscape:zoom="9.8333333"
     inkscape:cx="5.5450398"
     inkscape:cy="11.475831"
     inkscape:window-x="0"
     inkscape:window-y="0"
     inkscape:window-maximized="1"
     inkscape:current-layer="svg12">
    <inkscape:grid
       type="xygrid"
       id="grid836" />
  </sodipodi:namedview>
  <path
     style="fill:#fafafa"
     d="M 3 3 L 3 21 L 12.046875 21 A 6.4745765 6.4745765 0 0 1 11 17.474609 A 6.4745765 6.4745765 0 0 1 17.474609 11 A 6.4745765 6.4745765 0 0 1 21 12.050781 L 21 3 L 3 3 z "
     id="path2" />
  <path
     style="fill:#3a3a38"
     d="M 2 2 L 2 22 L 12.845703 22 A 6.4745765 6.4745765 0 0 1 12.046875 21 L 3 21 L 3 3 L 21 3 L 21 12.050781 A 6.4745765 6.4745765 0 0 1 22 12.851562 L 22 2 L 2 2 z "
     id="path4" />
  <circle
     cx="7.5"
     cy="7.5"
     fill="#fb983b"
     r="2.5"
     id="circle6" />
  <path
     style="fill:#83beec"
     d="M 9 16 C 9 16 5.9698911 19.29623 4.2050781 21 L 12.046875 21 A 6.4745765 6.4745765 0 0 1 11.003906 17.589844 L 11 17.59375 L 9 16 z "
     id="path8" />
  <path
     style="fill:#0063b1"
     d="M 9 15 C 9 15 3.4875945 21 3 21 L 4.2050781 21 C 5.9698911 19.29623 9 16 9 16 L 11 17.59375 L 11.003906 17.589844 A 6.4745765 6.4745765 0 0 1 11 17.474609 A 6.4745765 6.4745765 0 0 1 11.078125 16.521484 L 11 16.59375 L 9 15 z "
     id="path10" />
  <circle
     style="fill:#fafafa"
     cx="17.5"
     cy="17.5"
     r="4.5"
     id="circle2" />
  <path
     inkscape:connector-curvature="0"
     style="fill:#1e8bcd"
     d="M 17.5,12 A 5.5,5.5 0 0 0 12,17.5 5.5,5.5 0 0 0 17.5,23 5.5,5.5 0 0 0 23,17.5 5.5,5.5 0 0 0 17.5,12 Z m 0.002,1.152344 0.08984,0.130859 c 0.395593,0.573138 0.685701,1.110167 0.904297,1.625 -0.66098,0.08701 -1.337963,0.09546 -1.998047,0.02149 0.219378,-0.521298 0.512948,-1.065347 0.914062,-1.646485 z m -1.197265,0.0098 c -0.33902,0.54301 -0.609898,1.073508 -0.808641,1.587856 -0.410909,-0.103775 -0.799382,-0.255576 -1.173828,-0.431641 a 4.5,4.5 0 0 1 1.982422,-1.15625 z m 2.398437,0.0059 a 4.5,4.5 0 0 1 1.949219,1.126953 c -0.371117,0.166399 -0.754758,0.312263 -1.160156,0.417969 -0.196337,-0.500938 -0.459886,-1.016828 -0.789063,-1.544922 z m 2.597656,1.923828 A 4.5,4.5 0 0 1 21.966797,17 h -1.978516 c -0.01879,-0.430546 -0.08006,-0.872911 -0.191406,-1.326172 0.525818,-0.144098 1.025061,-0.345735 1.503906,-0.582031 z m -7.613281,0.02539 c 0.481599,0.248881 0.983626,0.457377 1.509766,0.597656 C 15.092206,16.153694 15.03385,16.5825 15.015625,17 H 13.03125 a 4.5,4.5 0 0 1 0.65625,-1.882812 z m 5.138672,0.761718 c 0.09688,0.386241 0.141368,0.75759 0.158156,1.12102 h -2.964844 c 0.01639,-0.354839 0.05975,-0.717178 0.152344,-1.09375 0.878831,0.124104 1.778028,0.11178 2.654297,-0.02734 z M 13.033203,18 h 2.011719 c 0.04698,0.437909 0.138331,0.859149 0.253906,1.271484 -0.560836,0.141718 -1.093792,0.361014 -1.605469,0.625 A 4.5,4.5 0 0 1 13.033203,18 Z m 3.023438,0 h 2.890625 c -0.04721,0.37642 -0.130834,0.747696 -0.240235,1.115234 -0.405333,-0.05899 -0.81405,-0.09778 -1.224609,-0.101562 -0.400382,-0.0037 -0.799302,0.02372 -1.195313,0.07422 C 16.181577,18.729472 16.102696,18.366914 16.056641,18 Z m 3.902343,0 h 2.009766 a 4.5,4.5 0 0 1 -0.677734,1.917969 C 20.783515,19.668399 20.252696,19.45475 19.693359,19.308594 19.814259,18.884436 19.910573,18.451226 19.958984,18 Z m -2.478515,2.033203 c 0.293733,0.0028 0.587627,0.029 0.878906,0.0625 -0.231663,0.557096 -0.501851,1.111673 -0.796875,1.671875 l -0.06055,0.113281 -0.05859,-0.113281 c -0.298139,-0.566116 -0.571154,-1.126417 -0.804687,-1.689453 0.279218,-0.02629 0.559921,-0.04758 0.841797,-0.04492 z m -1.861328,0.207031 c 0.216609,0.552107 0.473731,1.084982 0.742187,1.607422 a 4.5,4.5 0 0 1 -2.027344,-1.15625 c 0.407889,-0.190697 0.835239,-0.345886 1.285157,-0.451172 z m 3.751953,0.0332 c 0.44544,0.108726 0.867828,0.262113 1.273437,0.443359 a 4.5,4.5 0 0 1 -2.003906,1.132812 c 0.263467,-0.512631 0.51633,-1.035121 0.730469,-1.576171 z"
     id="path8-3" />
</svg>
